lib/svgs/sharp-down.svg

<svg xmlns="http://www.w3.org/2000/svg" viewBox="0 0 20 20">
    <path fill="#000" fill-rule="evenodd" d="M10.0863114,17.952903 L16.0863114,9.70290302 C16.3747344,9.30632143 16.0914419,8.75 15.6010698,8.75 L12.4510698,8.73620605 L12.4510698,2.6 C12.4510698,2.26862915 12.1824406,2 11.8510698,2 L7.35106978,2 C7.01969893,2 6.75106978,2.26862915 6.75106978,2.6 L6.76141357,8.75 L3.60106978,8.75 C3.11069771,8.75 2.82740516,9.30632143 3.11582813,9.70290302 L9.11582813,17.952903 C9.35543733,18.2823657 9.84670224,18.2823657 10.0863114,17.952903 L10.0863114,17.952903 Z M4.77514648,9.95 L7.35106978,9.95 C7.68244063,9.95 7.95106978,9.68137085 7.95106978,9.35 L7.96459961,3.2 L11.2510698,3.22918701 L11.2510698,9.35 C11.2510698,9.68137085 11.5196989,9.95 11.8510698,9.95 L14.4354148,9.93266537 L9.5916749,16.6700441 L4.77514648,9.95 L4.77514648,9.95 Z"/>
</svg>

<svg xmlns="http://www.w3.org/2000/svg" viewBox="0 0 20 20">
    <path fill="#000" fill-rule="evenodd" d="M10.086 17.953l6-8.25a.6.6 0 0 0-.485-.953l-3.15-.014V2.6a.6.6 0 0 0-.6-.6h-4.5a.6.6 0 0 0-.6.6l.01 6.15h-3.16a.6.6 0 0 0-.485.953l6 8.25a.6.6 0 0 0 .97 0M4.776 9.95H7.35a.6.6 0 0 0 .6-.6l.014-6.15 3.286.03v6.12a.6.6 0 0 0 .6.6l2.584-.017-4.843 6.737-4.817-6.72"/>
</svg>
